icon-svg/extension-us.svg

<svg xmlns="http://www.w3.org/2000/svg" fill="#44739e" viewBox="0 0 24 24"><path d="M3.063 6.072c-.017-.186-.407-.278-.612-.641a.355.355 0 0 1-.023-.259c.049-.189.275-.284.376-.315.586-.182 1.148-.384 1.74-.547a5.09 5.09 0 0 0 1.805-.741c.429-.319.952-1.3.857-1.454-.054-.088-.428-.009-.449.166a1.189 1.189 0 0 1-.553.865 3.966 3.966 0 0 1-1.75.8 10.16 10.16 0 0 0-1.986.634.851.851 0 0 0-.479.634.614.614 0 0 0 .07.332 1.51 1.51 0 0 0 .771.738Zm2.128 1.012.897-.533-.105-.073Zm-.391.422.444.335a.125.125 0 0 0 .141.006L6.7 7.031a.12.12 0 0 0 0-.2l-.435-.3a.127.127 0 0 0-.135 0l-.047.028.366.254.079.242-1.16.713-.509-.377c-.058-.044.025-.079.088-.116l.239-.183-.376.223a.119.119 0 0 0-.01.191m.711-2.599L3.1 6.463a.463.463 0 0 0-.032.756L18.813 19.4a.464.464 0 0 0 .6-.027l2.287-2.124a.465.465 0 0 0-.039-.712L6.038 4.925a.464.464 0 0 0-.527-.018M19.6 15.839l.941.72-.3.285-.952-.738zm-.555.472.941.72-.3.286-.952-.739zm-.627.533.941.721-.3.285-.953-.739zm-.627.556.941.72-.3.285-.953-.738zm-.979-2.633-.662.545-.162-.133.677-.52zM16 14.155l.147.108-.662.544-.162-.133zm-3.57-2.668-.663.544-.161-.133.677-.519zm-.807-.612.147.108-.662.544-.162-.133zm-3.148-2.35-.663.545-.161-.134.677-.519Zm-.66-.5-.662.544-.162-.133.677-.519ZM6.556 6.141l.677.479a.193.193 0 0 1-.008.319l-2.04 1.3a.191.191 0 0 1-.221-.01l-.69-.529a.193.193 0 0 1 .017-.317l2.054-1.25a.2.2 0 0 1 .211.008M19.465 19.54a.55.55 0 0 1-.71.032L2.716 7.165l-.006 2.1 16.213 12.66 2.716-2.6.376-2.151z"/></svg>

<?xml version="1.0" encoding="UTF-8"?>
<svg width="24px" fill="#44739e" height="24px" viewBox="0 0 24 24" version="1.1" xmlns="http://www.w3.org/2000/svg" xmlns:xlink="http://www.w3.org/1999/xlink">
            <path d="M 3.063,6.072 C 3.046,5.886 2.656,5.794 2.451,5.431 A 0.355,0.355 0 0 1 2.428,5.172 C 2.477,4.983 2.703,4.888 2.804,4.857 3.39,4.675 3.952,4.473 4.544,4.31 A 5.09,5.09 0 0 0 6.349,3.569 C 6.778,3.25 7.301,2.269 7.206,2.115 7.152,2.027 6.778,2.106 6.757,2.281 A 1.189,1.189 0 0 1 6.204,3.146 3.966,3.966 0 0 1 4.454,3.946 10.156,10.156 0 0 0 2.468,4.58 0.851,0.851 0 0 0 1.989,5.214 0.614,0.614 0 0 0 2.059,5.546 1.509,1.509 0 0 0 2.83,6.284 Z M 5.191,7.084 6.088,6.551 5.983,6.478 Z M 4.8,7.506 5.244,7.841 A 0.125,0.125 0 0 0 5.385,7.847 L 6.7,7.031 a 0.12,0.12 0 0 0 0,-0.2 l -0.435,-0.3 a 0.127,0.127 0 0 0 -0.135,0 L 6.083,6.559 6.449,6.813 6.528,7.055 5.368,7.768 4.859,7.391 C 4.801,7.347 4.884,7.312 4.947,7.275 L 5.186,7.092 4.81,7.315 A 0.119,0.119 0 0 0 4.8,7.506 Z M 5.511,4.907 3.1,6.463 A 0.463,0.463 0 0 0 3.068,7.219 L 18.813,19.4 a 0.464,0.464 0 0 0 0.6,-0.027 L 21.7,17.249 A 0.465,0.465 0 0 0 21.661,16.537 L 6.038,4.925 A 0.464,0.464 0 0 0 5.511,4.907 Z m 14.089,10.932 0.941,0.72 -0.3,0.285 -0.952,-0.738 z m -0.555,0.472 0.941,0.72 -0.3,0.286 -0.952,-0.739 z m -0.627,0.533 0.941,0.721 -0.3,0.285 -0.953,-0.739 z m -0.627,0.556 0.941,0.72 -0.3,0.285 -0.953,-0.738 z m -0.979,-2.633 -0.662,0.545 -0.162,-0.133 0.677,-0.52 z M 16,14.155 l 0.147,0.108 -0.662,0.544 -0.162,-0.133 z m -3.57,-2.668 -0.663,0.544 -0.161,-0.133 0.677,-0.519 z m -0.807,-0.612 0.147,0.108 -0.662,0.544 -0.162,-0.133 z M 8.475,8.525 7.812,9.07 7.651,8.936 8.328,8.417 Z M 7.815,8.025 7.153,8.569 6.991,8.436 7.668,7.917 Z M 6.556,6.141 7.233,6.62 A 0.193,0.193 0 0 1 7.225,6.939 l -2.04,1.3 A 0.191,0.191 0 0 1 4.964,8.229 L 4.274,7.7 A 0.193,0.193 0 0 1 4.291,7.383 L 6.345,6.133 A 0.2,0.2 0 0 1 6.556,6.141 Z M 19.465,19.54 a 0.55,0.55 0 0 1 -0.71,0.032 L 2.716,7.165 l -0.006,2.1 16.213,12.66 2.716,-2.6 0.376,-2.151 z"/>

</svg>
